X: 778
T: Aires De Pontevedra
R: reel
M: 4/4
K: Dmajor
M: 2/4
EF|:GF GE|FD EF|GF GE|FD EF|AF GE|FD EF|GF GE|FD FA|
=c4|=cB ce|d=c BA|GF GA|G4|GD GA|d=c BA|GF GA|F2 FD|FD FA|
d=c BA|GF GA|E4|FA FD|FA FD|EG EC|E2 A2|D4|1 D2 EF:|2 D2 A2||
|:d2 A2|F2 GA|BA GF|E3 F|GA GF|E2 FG|AG FE|D2 A2|
d2 A2|F2 GA|BA GF|E3 F|GF GA|BA FD|AG EC|D4|1 D2 A2:|2 D4||

